X: 080585
T: Hut in the Bog (B)
S: Treoir 
Z: B.Black
M: 4/4
L: 1/8
R: reel 
K: G
A3 B AGEG | AGAB c2 Bc | A3 B AGEF | gedB c2 Bc |
A3 B AGEG | AGAB c2 Bc | A3 B AGED | gedB c3 ||
d | e2 eg edcd | egec d2 cd | e2 eg edcd |\
efge d2 (3B^cd |
e2 eg edcd | egec d2 cd | ea a2 egfa | gedB c3 || 
d | ecgc ec c2 | ecge d2 cd | ecgc ec c2 | ecge d2 cd |
ecgc ec c2 | ecge d2 cd | ea a2 egfa | gedB cABG ||
